rospo-icon-theme-classic-common/48x48/places/folder-teal-music.svg

<svg height="48" width="48" xmlns="http://www.w3.org/2000/svg"><rect height="26" opacity=".2" rx="2" width="40" x="4" y="17"/><path d="m4 34c0 1.108.892 2 2 2h36c1.108 0 2-.892 2-2v-22c0-1.108-.892-2-2-2h-20v-2c0-1.108-.892-2-2-2h-14c-1.108 0-2 .892-2 2" fill="#12806a"/><rect height="26" opacity=".2" rx="2" width="40" x="4" y="15"/><rect fill="#e4e4e4" height="16" rx="2" width="36" x="6" y="13"/><rect fill="#16a085" height="26" rx="2" width="40" x="4" y="16"/><path d="m6 6c-1.108 0-2 .892-2 2v1c0-1.108.892-2 2-2h14c1.108 0 2 .892 2 2v-1c0-1.108-.892-2-2-2zm16 4v1h20c1.108 0 2 .892 2 2v-1c0-1.108-.892-2-2-2z" fill="#fff" opacity=".1"/><path d="m21 30.176c-.321-.115-.659-.175-1-.176-1.657 0-3 1.343-3 3s1.343 3 3 3 3-1.343 3-3v-7h6v4.176c-.321-.115-.659-.175-1-.176-1.657 0-3 1.343-3 3s1.343 3 3 3 3-1.343 3-3v-10c0-.554-.669-1-1.5-1h-7c-.831 0-1.5.446-1.5 1" fill="#08382e"/></svg>

<svg xmlns="http://www.w3.org/2000/svg" width="48" height="48" version="1">
 <rect style="opacity:0.2" width="40" height="26" x="4" y="17" rx="2" ry="2"/>
 <path style="fill:#12806a" d="M 4,34 C 4,35.108 4.892,36 6,36 H 42 C 43.108,36 44,35.108 44,34 V 12 C 44,10.892 43.108,10 42,10 H 22 V 8 C 22,6.892 21.108,6 20,6 H 6 C 4.892,6 4,6.892 4,8"/>
 <rect style="opacity:0.2" width="40" height="26" x="4" y="15" rx="2" ry="2"/>
 <rect style="fill:#dcdcdc" width="36" height="16" x="6" y="13" rx="2" ry="2"/>
 <rect style="fill:#16a085" width="40" height="26" x="4" y="16" rx="2" ry="2"/>
 <path style="opacity:0.1;fill:#ffffff" d="M 6,6 C 4.892,6 4,6.892 4,8 V 9 C 4,7.892 4.892,7 6,7 H 20 C 21.108,7 22,7.892 22,9 V 8 C 22,6.892 21.108,6 20,6 Z M 22,10 V 11 H 42 C 43.108,11 44,11.892 44,13 V 12 C 44,10.892 43.108,10 42,10 Z"/>
 <path style="fill:#08382e" d="M 21,30.176 C 20.679,30.061 20.341,30.001 20,30 18.343,30 17,31.343 17,33 17,34.657 18.343,36 20,36 21.657,36 23,34.657 23,33 V 26 H 29 V 30.176 C 28.679,30.061 28.341,30.001 28,30 26.343,30 25,31.343 25,33 25,34.657 26.343,36 28,36 29.657,36 31,34.657 31,33 V 23 C 31,22.446 30.331,22 29.5,22 H 22.5 C 21.669,22 21,22.446 21,23"/>
</svg>
